X: 1
T:The Balmoral Highlanders  "CYMRU"
M:C|
L:1/8
Q:80
C:Angus Mackay
S:March
K:HP
{gef}e|
{g}A3/4e/4{g}c/4e3/4{g}A3/4e/4{g}c/4e3/4|
{gef}e3/4c/4{g}f3/4A/4{gef}e{gde}d3/4B/4|  !
{g}G3/4d/4{g}B/4d3/4{g}G3/4d/4{g}B/4d3/4|
{g}G3/4A/4{g}B3/4c/4{gde}d3/4B/4{gef}e3/4c/4| |
{g}A3/4e/4{g}c/4e3/4{g}A3/4e/4{g}c/4e3/4|  !
{gef}e3/4c/4{g}f3/4A/4{gef}e{gde}d3/4c/4|
{g}B/4d3/4{g}G3/4{d}B/4{a}g3/4f/4{gef}e3/4d/4|
{gcd}c{e}A{GAG}A|] |  !
{g}A3/4e/4{g}c/4e3/4{g}A3/4e/4{g}c/4e3/4|
{gef}e3/4c/4{g}f3/4A/4{gef}e{gde}d3/4B/4|
{g}G3/4d/4{g}B/4d3/4{g}G3/4d/4{g}B/4d3/4|  !
{g}G3/4A/4{g}B3/4c/4{gde}d3/4B/4{gef}e3/4c/4| |
{g}A3/4e/4{g}c/4e3/4{g}A3/4e/4{g}c3/4d/4|
{gef}e3/4c/4{g}f3/4A/4{gef}e{gde}d3/4c/4|  !
{g}B/4d3/4{g}G3/4{d}B/4{a}g3/4f/4{gef}e3/4d/4|
{gcd}c{e}A{GAG}A|]
{gef}e|  !
{g}c/4e3/4{ag}ac/4e3/4{ag}a|
c/4e3/4a3/4f/4{gef}e{gde}d3/4c/4|
{gBG}B{gf}g{BG}B{gBG}g|  !
{BG}B{gBG}ga3/4g/4{fg}f3/4d/4| |
{g}c/4e3/4{ag}ag/4{a}e3/4{ag}a|
g3/4e/4{g}f3/4d/4{gef}e{gde}d3/4c/4|  !
{g}B/4d3/4{g}G3/4{d}B/4{a}g3/4f/4{gef}e3/4d/4|
{gcd}c{e}A{GAG}A:|
{gef}e|  !
{g}A3/4{d}A/4{e}A3/4{d}c/4{g}A3/4{d}A/4{e}A3/4{d}c/4|
{g}A3/4{d}A/4{e}A3/4{d}c/4{gef}e{gde}d3/4B/4|
{g}G3/4{d}G/4{e}G3/4{d}c/4{g}G3/4{d}G/4{e}G3/4{d}B/4|  !
{g}G3/4{d}G/4{e}G3/4B/4{Gdc}d3/4B/4{gef}e3/4c/4| |
{g}A{GdGe}A3/4d/4{g}c/4e3/4{g}A/2{d}c/4|
{gef}e3/4A/4{g}f3/4A/4{gef}e{gde}d3/4c/4|  !
{g}B/4d3/4{g}G3/4{d}B/4{a}g3/4f/4{gef}e3/4d/4|
{gcd}c{e}A{GAG}A:|
{gef}e3/4d/4|  !
c/4e3/4a3/4e/4{gf}g3/4e/4{ag}a|
c/4e3/4a3/4g/4{fg}f3/4e/4{gde}d3/4c/4|
{gBGdG}B{gf}g3/4B/4a3/4B/4{gf}g|  !
{BGdG}B{gf}ga3/4g/4{fg}f3/4d/4| |
{g}c/4e3/4{ag}ag/4{a}e3/4{ag}a|
g3/4e/4{g}f3/4d/4{gef}e{gde}d3/4c/4|  !
{g}B/4d3/4{g}G3/4{d}B/4{a}g3/4f/4{gef}e3/4d/4|
{gcd}c{e}A{GAG}A:|
